suite-common/icons/assets/icons/menu.svg

<svg xmlns="http://www.w3.org/2000/svg" viewBox="0 0 24 24">
  <path fill-rule="evenodd" d="M1.8 5.075c-.36.041-.632.288-.745.675-.084.29-.032.544.173.842.253.37.057.345 2.872.373 3.195.033 12.005.033 15.2 0 2.745-.028 2.606-.013 2.824-.292.192-.247.248-.397.248-.673 0-.358-.197-.723-.469-.872-.114-.063-.806-.068-10.003-.073-5.434-.003-9.979.006-10.1.02m-.106 6.482c-.353.058-.611.372-.644.785-.038.476.137.809.543 1.03l.201.11 9.933-.011c9.559-.011 9.938-.014 10.068-.085.237-.129.476-.411.552-.65a.944.944 0 0 0-.445-1.099l-.202-.116-9.92.004c-5.456.003-9.995.017-10.086.032m.226 6.44c-.29.02-.361.039-.486.134a1.13 1.13 0 0 0-.403.642c-.085.411.149.853.566 1.065.16.082.172.082 10.103.082 9.875 0 9.944-.001 10.101-.08.535-.273.733-.866.455-1.36a1.2 1.2 0 0 0-.289-.337c-.146-.103-.213-.121-.576-.148-.47-.035-18.953-.033-19.471.002"/>
</svg>

<svg xmlns="http://www.w3.org/2000/svg" viewBox="0 0 24 24"><path d="M1.800 5.075 C 1.440 5.116,1.168 5.363,1.055 5.750 C 0.971 6.040,1.023 6.294,1.228 6.592 C 1.481 6.962,1.285 6.937,4.100 6.965 C 7.295 6.998,16.105 6.998,19.300 6.965 C 22.045 6.937,21.906 6.952,22.124 6.673 C 22.316 6.426,22.372 6.276,22.372 6.000 C 22.372 5.642,22.175 5.277,21.903 5.128 C 21.789 5.065,21.097 5.060,11.900 5.055 C 6.466 5.052,1.921 5.061,1.800 5.075 M1.694 11.557 C 1.341 11.615,1.083 11.929,1.050 12.342 C 1.012 12.818,1.187 13.151,1.593 13.372 L 1.794 13.482 11.727 13.471 C 21.286 13.460,21.665 13.457,21.795 13.386 C 22.032 13.257,22.271 12.975,22.347 12.736 C 22.479 12.317,22.294 11.862,21.902 11.637 L 21.700 11.521 11.780 11.525 C 6.324 11.528,1.785 11.542,1.694 11.557 M1.920 17.997 C 1.630 18.017,1.559 18.036,1.434 18.131 C 1.235 18.284,1.083 18.526,1.031 18.773 C 0.946 19.184,1.180 19.626,1.597 19.838 C 1.757 19.920,1.769 19.920,11.700 19.920 C 21.575 19.920,21.644 19.919,21.801 19.840 C 22.336 19.567,22.534 18.974,22.256 18.480 C 22.185 18.355,22.060 18.209,21.967 18.143 C 21.821 18.040,21.754 18.022,21.391 17.995 C 20.921 17.960,2.438 17.962,1.920 17.997 " stroke="none" fill-rule="evenodd" fill="black"></path></svg>
